X:1
T:Congratulamini mihi omnes
T:Congratulamini mihi omnes
T:Adrian Willaert (c. 1490-1562)
T:© 2009 by Paul R. Marchesano. May be freely copied for nonprofit use.
T:© 2009 by Paul R. Marchesano. May be freely copied for nonprofit use.
T:© 2009 by Paul R. Marchesano. May be freely copied for nonprofit use.
T:© 2009 by Paul R. Marchesano. May be freely copied for nonprofit use.
T:© 2009 by Paul R. Marchesano. May be freely copied for nonprofit use.
T:© 2009 by Paul R. Marchesano. May be freely copied for nonprofit use.
T:© 2009 by Paul R. Marchesano. May be freely copied for nonprofit use.
T:© 2009 by Paul R. Marchesano. May be freely copied for nonprofit use.
T:© 2009 by Paul R. Marchesano. May be freely copied for nonprofit use.
T:© 2009 by Paul R. Marchesano. May be freely copied for nonprofit use.
T:© 2009 by Paul R. Marchesano. May be freely copied for nonprofit use.
T:© 2009 by Paul R. Marchesano. May be freely copied for nonprofit use.
T:© 2009 by Paul R. Marchesano. May be freely copied for nonprofit use.
C:Adrian Willaert
C:(c. 1490-1562)
Z:© 2009 by Paul R. Marchesano. May be freely copied for nonprofit use.
%%score [ 1 2 3 4 ]
L:1/8
Q:1/4=132
M:2/2
K:C
V:1 treble nm="Soprano" snm="S"
V:2 treble nm="Alto" snm="A"
V:3 treble-8 nm="Tenor" snm="T"
V:4 bass nm="Bass" snm="B"
V:1
 G4 d4 | d4 e4- | e2 e2 d4 | f4 e4 | e4 d4 | z2 e4 c2 | d2 e2 A3 B | c2 d4 c2 | B2 d4 cB | %9
w: Con- gra-|tu- la-|* mi- ni|mi- hi|o- mnes|qui di-|li- gi- tis _|_ Do- *||
 A4 G3 A | B2 c4 B2 | c6 BA | B3 c d4 | c8 | z4 c4- | c2 A2 B2 c2 | d3 c A2 B2 | c2 A2 B3 c | %18
w: |||* * mi-|num|qui|_ di- li- gi-|tis _ _ Do-||
 d2 G2 d4 | z2 e4 c2 | d2 e2 A3 B | c2 d4 c2 | B2 d4 cB | A4 G3 A | B2 c4 B2 | c2 e4 dc | %26
w: * mi- num|qui di-|li- gi- tis _|_ Do- *|||||
 B2 c2 d4 | G8 | z2 G2 A2 c2- | cB A4 G2 | F4 E4 | z8 | z8 | G4 B4 | c6 c2 | B4 A4 | z2 A2 c2 B2 | %37
w: * * mi-|num|qui- a quem|_ _ _ quae-|re- bam|||qui- a|quem quae-|re- bam|ap- pa- ru-|
 d4 c2 B2 | A4 G3 A | B2 A4 G2- | G2 ^F2 G4- | G8 | B4 c4 | B4 A4 | z2 c4 B2 | A2 d3 c c2- | %46
w: it mi- *|hi ap- pa-|* ru- it|_ mi- hi|_|et dum|fle- rem|ad mo-|nu- men- * *|
 c2 B2 c2 A2 | B4 A4 | z8 | z8 | d8 | e4 d4 | c4 z2 d2- | d2 c2 B2 e2- | ed d4 ^c2 | d4 z4 | %56
w: |* tum|||et|dum fle-|rem ad|_ mo- nu- men-||tum|
 d4 c2 A2 | B2 c2 A2 G2- | GABc d4 | f4 e2 c2 | d2 e2 c2 B2- | Bc d4 cB | A4 z2 A2 | G2 E2 F2 G2 | %64
w: vi- di Do-|* mi- num me-|* * * * um|vi- di Do-|* mi- num me-||um vi-|di Do- * mi-|
 E2 D3 EFG | A3 B c2 d2- | dcBA B2 A2- | A2 G4 ^F2 | G4 z2 A2 | G2 E2 F2 G2 | E2 D3 EFG | %71
w: num me- * * *|* * um al-|* * * * * le-|* lu- *|ia, vi-|di Do- * mi-|num me- * * *|
 A3 B c2 d2- | dcBA B2 A2- | A2 G4 ^F2 | G8- | G8 || z8 | z8 | z8 | z8 | z8 | z8 | z8 | z8 | %84
w: * * um al-|* * * * * le-|* lu- *|ia.|_|||||||||
 A6 A2 | B4 c4 | d3 c B2 A2 | c2 B2 A4 | z2 d2 c2 d2 | A2 d4 ^c2 | d4 d4 | d2 d2 c4 | B4 z4 | %93
w: Re- ce-|den- ti-|bus _ _ di-|sci- pu- lis|non re- ce-|de- * *|bam non|re- ce- de-|bam|
 G4 d4 | e6 d2 | f4 e4 | d3 e f2 e2- | e2 dc B2 e2 | d2 f3 e d2- | d2 ^c2 d2 d2- | d2 d2 c4 | %101
w: et a-|mo- ris|e- jus|i- * * gne|_ _ _ _ suc-|cen- * * *|* * sa et|_ a- mo-|
 B4 A3 B | c2 B4 AG | A2 c2 B3 c | dB c2 B2 A2- | A2 G2 A4- | A4 z4 | A4 B4 | G4 d4- | d2 e2 d3 e | %110
w: ris e- *|* jus _ _|_ i- gne _|_ _ _ suc- cen-|* * sa|_|ar- de-|bam de-|* si- de- *|
 f2 e3 d d2- | d2 c2 d4 | z4 A4 | B2 G2 B3 c | d2 c2 c2 BA | G2 G2 ^F4 | z2 G2 A4 | G2 c2 B2 A2- | %118
w: |* ri- o|ar-|de- bam de- *|* si- de- * *|* ri- o|ar- de-|bam de- si- de-|
 AG G4 ^F2 | G8- | G8 | B4 c4 | B4 A4 | z2 c4 B2 | A2 d3 c c2- | c2 B2 c2 A2 | B4 A4 | z8 | z8 | %129
w: * * * ri-|o|_|et dum|fle- rem|ad mo-|nu- men- * *||* tum|||
 d8 | e4 d4 | c4 z2 d2- | d2 c2 B2 e2- | ed d4 ^c2 | d4 z4 | d4 c2 A2 | B2 c2 A2 G2- | GABc d4 | %138
w: et|dum fle-|rem ad|_ mo- nu- men-||tum|vi- di Do-|* mi- num me-|* * * * um|
 f4 e2 c2 | d2 e2 c2 B2- | Bc d4 cB | A4 z2 A2 | G2 E2 F2 G2 | E2 D3 EFG | A3 B c2 d2- | %145
w: vi- di Do-|* mi- num me-||um vi-|di Do- * mi-|num me- * * *|* * um al-|
 dcBA B2 A2- | A2 G4 ^F2 | G4 z2 A2 | G2 E2 F2 G2 | E2 D3 EFG | A3 B c2 d2- | dcBA B2 A2- | %152
w: * * * * * le-|* lu- *|ia, vi-|di Do- * mi-|num me- * * *|* * um al-|* * * * * le-|
 A2 G4 ^F2 | G8- | G8 |] %155
w: * lu- *|ia.|_|
V:2
 z8 | z4 C4 | G4 G4 | A6 A2 | G4 _B4 | A4 A4 | G4 z2 A2- | A2 F2 G2 A2 | D3 E F2 G2- | G2 F2 G4- | %10
w: |Con-|gra- tu-|la- mi-|ni mi-|hi o-|mnes qui|_ di- li- gi-|tis _ _ Do-|* mi- num|
 G8 | z2 C4 C2 | G2 G2 F4 | A3 G E2 F2 | G4 C3 D | E2 F2 E4 | z2 F4 D2 | E2 F2 G3 F | D2 E2 F3 G | %19
w: _|qui di-|li- gi- tis|Do- * * *||* mi- num|qui di-|li- gi- tis _|_ Do- * *|
 A2 G4 F2- | F2 E2 F2 A2- | A2 GF E2 F2 | G3 F D2 E2- | E2 D2 E4 | z4 D4 | E4 G4- | G2 G2 F4 | %27
w: ||||* mi- num|qui-|a quem|_ quae- re-|
 E8- | E4 z2 C2 | C2 D2 E4 | A,4 z4 | C4 D4 | F6 F2 | E4 D4 | z2 E2 F2 E2 | G4 F3 E | D2 C4 D2- | %37
w: bam|_ ap-|pa- * ru-|it|qui- a|quem quae-|re- bam|ap- pa- ru-|it mi- *|* hi ap-|
 DEFG A2 G2- | G2 F2 E2 D2- | D2 F4 E2 | D8 | z2 D2 E4 | D4 C4 | z2 G4 F2 | E2 A3 G G2- | %45
w: * * * * * pa-|* ru- it mi-||hi|et dum|fle- rem|ad mo-|nu- men- * *|
 G2 F2 G4- | G4 E2 F2 | G4 z4 | G4 A4 | G4 ^F4 | z2 G4 F2 | E2 A3 G G2- | G2 ^F2 G4 | z2 G2 G2 E2 | %54
w: ||tum|et dum|fle- rem|ad mo-|nu- men- * *|* * tum|ad mo- nu-|
 G4 A4 | z4 G4 | F2 D2 E2 F2 | D2 C3 DEF | G3 A B2 G2 | A2 F2 G2 A2 | F2 E3 F G2- | G2 FE D3 E | %62
w: men- tum|vi-|di Do- * mi-|num me- * * *|* * um vi-|di Do- * mi-|num me- * *||
 F4 z4 | E4 D2 B,2 | C2 D2 B,2 A,2- | A,B,CD E2 F2 | D2 G3 F E2 | D2 C2 D4 | E4 C4 | E4 D2 B,2 | %70
w: um|vi- di Do-|* mi- num me-|* * * * um al-|le- lu- * *||ia, _|vi- di Do-|
 C2 D2 B,2 A,2- | A,B,CD E2 F2 | D2 G3 F E2 | D2 C2 D4- | D4 E4 | D8 || z8 | z8 | z8 | z8 | z8 | %81
w: * mi- num me-|* * * * um al-|le- lu- * *|||ia.||||||
 z8 | z8 | D6 D2 | E4 F4 | G4 z4 | D6 D2 | E4 F4 | G3 F E2 D2 | F4 E4 | D2 G2 F2 G2 | D2 G4 ^F2 | %92
w: ||Re- ce-|den- ti-|bus|Re- ce-|den- ti-|bus _ _ di-|sci- pu-|lis non re- ce-|de- * *|
 G4 z4 | z8 | C4 G4 | A6 G2 | _B4 A4- | A4 G3 A | _B2 A4 F2 | E4 D3 E | F2 G2 CDEF | G4 C4 | z8 | %103
w: bam||et a-|mo- ris|e- jus|_ i- *|* gne suc-|cen- * *||* sa||
 z2 G4 FE | D2 G4 C2 | D4 E4 | ^F3 E F2 G2- | G^FFE G2 G,2- | G,2 C4 B,A, | B,2 C2 G,4 | z8 | %111
w: i- * *|gne suc- cen-|||* * * * sa suc-|* cen- * *|* * sa||
 A,4 _B,4 | G,4 D4- | D2 E2 D3 E | F2 E3 D D2- | D2 C2 D3 C | B,4 A,4 | E3 F G2 C2 | E2 E2 D4- | %119
w: ar- de-|bam de-|* si- de- *|||ri- o|de- * * si-|de- ri- o|
 D4 z4 | D4 E4 | D4 C4 | z2 G4 F2 | E2 A3 G G2- | G2 F2 G4- | G4 E2 F2 | G4 z4 | G4 A4 | G4 ^F4 | %129
w: _|et dum|fle- rem|ad mo-|nu- men- * *|||tum|et dum|fle- rem|
 z2 G4 F2 | E2 A3 G G2- | G2 ^F2 G4 | z2 G2 G2 E2 | G4 A4 | z4 G4 | F2 D2 E2 F2 | D2 C3 DEF | %137
w: ad mo-|nu- men- * *|* * tum|ad mo- nu-|men- tum|vi-|di Do- * mi-|num me- * * *|
 G3 A B2 G2 | A2 F2 G2 A2 | F2 E3 F G2- | G2 FE D3 E | F4 z4 | E4 D2 B,2 | C2 D2 B,2 A,2- | %144
w: * * um vi-|di Do- * mi-|num me- * *||um|vi- di Do-|* mi- num me-|
 A,B,CD E2 F2 | D2 G3 F E2 | D2 C2 D4 | E4 C4 | E4 D2 B,2 | C2 D2 B,2 A,2- | A,B,CD E2 F2 | %151
w: * * * * um al-|le- lu- * *||ia, _|vi- di Do-|* mi- num me-|* * * * um al-|
 D2 G3 F E2 | D2 C2 D4- | D4 E4 | D8 |] %155
w: le- lu- * *|||ia.|
V:3
 z8 | z8 | z8 | z8 | z8 | z8 | z8 | z8 | G4 d4 | d4 e4- | e2 e2 d4 | f4 e4 | e4 d4 | z2 e4 c2 | %14
w: ||||||||Con- gra-|tu- la-|* mi- ni|mi- hi|o- mnes|qui di-|
 d2 e2 A3 B | c2 d4 c2 | A2 d4 cB | A4 G3 A | B2 c4 B2 | c4 z2 c2- | c2 B2 d2 c2 | A3 B c4 | %22
w: li- gi- tis _|_ Do- *|||* * mi-|num qui|_ di- li- gi-|tis _ _|
 d3 c B2 G2 | A3 B c2 B2 | G8- | G4 z4 | G4 A4 | c6 c2 | B4 A4 | z2 A2 c2 B2 | d4 c3 B | %31
w: Do- * * *|* * * mi-|num|_|qui- a|quem quae-|re- bam|ap- pa- ru-|it mi- *|
 A2 G3 ABc | d2 c4 B2 | c2 G4 g2- | gfed c3 d | e2 d4 d2 | f4 e2 g2- | g2 f3 edc | d2 A2 c2 B2 | %39
w: ||hi ap- pa-||* ru- it|mi- hi ap-|* pa- * * *|* * * ru-|
 d4 c3 B | A4 G4 | B3 A B2 c2 | G2 g4 ^f2 | g4 z4 | z4 d4- | d4 e4 | d4 c4 | z2 d4 c2 | %48
w: it mi- *|* hi|ap- pa- * ru-|it mi- *|hi|et|_ dum|fle- rem|ad mo-|
 B2 e3 d d2- | d2 ^c2 d=cBA | B4 A2 d2- | dc c4 B2 | c2 A2 B3 c | d2 e4 dc | d4 e4 | d3 c B2 AG | %56
w: nu- men- * *||||tum ad mo- nu-|men- * * *|||
"^*" A2 _B2 A4 | z8 | e4 d2 B2 | c2 d2 B2 A2- | ABcd e4 | d4 z4 | d4 c2 A2 | B2 c2 A2 G2- | %64
w: * * tum||vi- di Do-|* mi- num me-||um|vi- di Do-|* mi- num me-|
 GABc dB c2- | c2 BA G2 A2 | B2 d4 c2 | B2 AG A4 | z2 c2 c2 A2 | B2 c2 A2 G2- | GABc dB c2- | %71
w: |* * * um al-|le- lu- *|* * * ia,|vi- di Do-|* mi- num me-||
 c2 BA G2 A2 | B2 d4 c2 | B2 AG A4 | B4 c4 | B8 || G6 G2 | B4 c4 | d3 c B2 A2 | c2 B2 A4 | %80
w: * * * um al-|le- lu- *|||ia.|Re- ce-|den- ti-|bus _ _ di-|sci- pu- lis|
 z2 d2 c2 d2 | A2 d4 ^c2 | d2 f2 e2 d2- | dcBA B4 | A4 z2 d2- | d2 e4 dc | BG g4 f2 | g2 G2 d4 | %88
w: non re- ce-|de- * *|bam non re- ce-|* * * * de-|bam non|_ re- ce- *|* * de- *||
 G4 z4 | z8 | z8 | G4 c4 | d6 B2 | e4 d2 g2- | gc c4 B2 | c8 | G4 z4 | z8 | z8 | z4 G4 | d4 e4- | %101
w: bam|||et a-|mo- ris|e- jus i-|* * gne suc-|cen-|sa|||et|a- mo-|
 e2 d2 f4 | e4 d3 e | f2 e4 dc | B2 e2 d2 f2- | fe d4 ^c2 | d8 | z4 d4 | e4 d4 | g6 fe | %110
w: * ris e-|jus i- *|* gne _ _|_ suc- cen- *||sa|ar-|de- bam|de- * *|
 d2 e2 f2 g2 | e2 f3 e d2- | dc g4 ^f2 | g4 z4 | z8 | G4 A4 | G4 c4- | c2 BA G2 A2 | B2 c2 A4 | %119
w: * si- de- *||* * * ri-|o||ar- de-|bam de-|* * * * si-|de- ri- o|
 z2 B2 c4 | B3 A B2 c2 | G2 g4 ^f2 | g4 z4 | z4 d4- | d4 e4 | d4 c4 | z2 d4 c2 | B2 e3 d d2- | %128
w: et dum|fle- * * *||rem|et|_ dum|fle- rem|ad mo-|nu- men- * *|
 d2 ^c2 d=cBA | B4 A2 d2- | dc c4 B2 | c2 A2 B3 c | d2 e4 dc | d4 e4 | d3 c B2 AG | A2 B2 A4 | z8 | %137
w: |||tum ad mo- nu-|men- * * *|||tum _ _||
 e4 d2 B2 | c2 d2 B2 A2- | ABcd e4 | d4 z4 | d4 c2 A2 | B2 c2 A2 G2- | GABc dB c2- | c2 BA G2 A2 | %145
w: vi- di Do-|* mi- num me-||um|vi- di Do-|* mi- num me-||* * * um al-|
 B2 d4 c2 | B2 AG A4 | z2 c2 c2 A2 | B2 c2 A2 G2- | GABc dB c2- | c2 BA G2 A2 | B2 d4 c2 | %152
w: le- lu- *|* * * ia,|vi- di Do-|* mi- num me-||* * * um al-|le- lu- *|
 B2 AG A4 | B4 c4 | B8 |] %155
w: ||ia.|
V:4
 z8 | z8 | z8 | z8 | z8 | z8 | z8 | z8 | z8 | z4 C,4 | G,4 G,4 | A,6 A,2 | G,4 _B,4 | A,4 A,4 | %14
w: |||||||||Con-|gra- tu-|la- mi-|ni mi-|hi o-|
 G,4 z2 A,2- | A,2 F,2 G,2 A,2 | D,3 E, F,2 G,2- | G,2 F,2 E,2 G,2- | G,2 F,E, D,4 | %19
w: mnes qui|_ di- li- gi-|tis _ _ Do-||* * * mi-|
 C,2 C3 B, A,2 | G,4 F,4- | F,2 D,2 A,4 | G,8 | F,3 E, C,2 E,2- | E,2 D,C, G,4 | C,8 | E,4 D,4 | %27
w: num qui _ _|di- li-|* gi- tis|Do-||* mi- * num|Do-|mi- *|
 C,4 z2 C,2 | E,4 F,4- | F,2 F,2 E,4 | D,4 z2 E,2 | F,2 E,2 G,4 | F,3 E, D,4 | C,4 G,4 | %34
w: num qui-|a quem|_ quae- re-|bam ap-|pa- ru- it|mi- * *|hi ap-|
 C3 B, A,2 A,2 | G,4 z2 D,2- | D,E,F,G, A,2 G,2- | G,2 D,2 F,2 G,2 | D,4 z2 G,2- | %39
w: pa- * * ru-|it mi-|||hi et|
 G,2 D,2 F,2 C,2 | D,4 z2 G,2- | G,2 G,2 E,2 C,2 | G,4 A,4 | G,4 D,4 | A,2 F,2 G,4 | D,4 z4 | %46
w: _ dum fle- *|rem et|_ dum fle- *||rem ad|mo- nu- men-|tum|
 G,4 A,4 | G,4 F,2 F,2 | G,2 C,2 F,4 | E,4 D,4 | z4 D,4 | A,3 G, F,2 G,2 | A,4 G,3 A, | %53
w: et dum|fle- rem ad|mo- nu- men-|* tum|ad|mo- * * nu-|men- tum _|
 B,2 C2 G,2 A,2 | _B,4 A,4 | D,2 G,4 F,E, | D,4 z4 | z8 | z4 G,4 | F,2 D,2 E,2 F,2 | %60
w: _ ad mo- nu-|men- *||tum||vi-|di Do- * mi-|
 D,2 C,3 D,E,F, | G,8 | z4 F,4 | E,2 C,2 D,2 E,2 | C,2 G,4 A,2 | F,4 E,2 D,2 | G,3 F, G,2 C,2 | %67
w: num me- * * *|um|vi-|di Do- * mi-|num me- *|um al- le-|lu- * * *|
 D,2 E,2 D,4 | z4 F,4 | E,2 C,2 D,2 E,2 | C,2 G,4 A,2 | F,4 E,2 D,2 | G,3 F, G,2 C,2 | %73
w: * * ia,|vi-|di Do- * mi-|num me- *|um al- le-|lu- * * *|
 D,2 E,2 D,4 | G,4 C,4 | G,8 || z8 | z8 | D,6 D,2 | F,4 G,4 | A,3 G, F,2 E,2 | F,4 E,4 | %82
w: ||ia.|||Re- ce-|den- ti-|bus _ _ di-|sci- pu-|
 D,4 z2 G,2 | F,2 G,2 D,2 D2- | D2 C2 D4 | G,4 A,4 | G,4 z4 | z8 | z8 | D,4 A,4 | _B,6 G,2 | %91
w: lis non|re- ce- de- *|||bam|||et a-|mo- ris|
 _B,4 A,4 | G,4 F,2 G,2 | C,2 C4 B,2 | C2 A,2 G,4 | F,4 C,4 | z8 | z8 | z4 D,4 | A,4 _B,4- | %100
w: e- jus|i- gne suc-|cen- * *||sa _|||et|a- mo-|
 B,2 _B,2 A,4 | G,4 F,3 G, | A,2 G,4 F,E, | D,2 C,2 G,4- | G,2 C,2 G,2 A,2 | _B,4 A,4 | %106
w: * ris e-|jus i- *|* gne _ _|_ suc- cen-|||
 D,2 D4 CB, | C2 D2 G,4 | z8 | z8 | z8 | z4 D,4 | E,4 D,4 | G,6 F,E, | D,2 E,2 F,2 G,2 | E,4 D,4 | %116
w: sa suc- * *|cen- * sa||||ar-|de- bam|de- * *|* si- de- ri-|o _|
 E,4 F,4 | C,3 D, E,2 F,2 | E,2 C,2 D,4 | G,4 z2 C,2 | G,4 E,2 C,2 | G,4 A,4 | G,4 D,4 | %123
w: de- si-|de- * * *|* ri- o|_ et|dum fle- *||rem ad|
 A,2 F,2 G,4 | D,4 z4 | G,4 A,4 | G,4 F,2 F,2 | G,2 C,2 F,4 | E,4 D,4 | z4 D,4 | A,3 G, F,2 G,2 | %131
w: mo- nu- men-|tum|et dum|fle- rem ad|mo- nu- men-|* tum|ad|mo- nu- men- *|
 A,4 G,3 A, | B,2 C2 G,2 A,2 | _B,4 A,4 | D,2 G,4 F,E, | D,4 z4 | z8 | z4 G,4 | F,2 D,2 E,2 F,2 | %139
w: * tum _|_ ad mo- nu-|men- *||tum||vi-|di Do- * mi-|
 D,2 C,3 D,E,F, | G,8 | z4 F,4 | E,2 C,2 D,2 E,2 | C,2 G,4 A,2 | F,4 E,2 D,2 | G,3 F, G,2 C,2 | %146
w: num me- * * *|um|vi-|di Do- * mi-|num me- *|um al- le-|lu- * * *|
 D,2 E,2 D,4 | z4 F,4 | E,2 C,2 D,2 E,2 | C,2 G,4 A,2 | F,4 E,2 D,2 | G,3 F, G,2 C,2 | %152
w: * * ia,|vi-|di Do- * mi-|num me- *|um al- le-|lu- * * *|
 D,2 E,2 D,4 | G,4 C,4 | G,8 |] %155
w: ||ia.|

